X:100
%%etbk:tnset id:521,pos:5,rep:3x,ant:
%%etbk:wsite https://thesession.org/tunes/4495
%%etbk:video src:ytube,cde:znqZhiTqt-8,desc:fifth tune
%%etbk:pldat 2016-09-17T15:00,2016-09-16T17:08,2016-09-15T18:11,2016-09-13T16:42,2016-09-11T16:37,2016-09-10T14:29,2016-09-09T18:26,2016-09-08T18:30,2016-09-07T17:03,2016-09-06T18:30,2016-09-06T15:39,2016-09-04T13:35,2016-09-04T11:13,2016-09-03T11:00,2016-08-21T11:07,2016-08-17T17:21,2016-08-12T17:02,2016-08-11T19:20,2016-08-10T17:42,2016-08-09T16:39,2016-08-08T19:33,2016-08-06T15:20
T: The Oyster Wife's Rant
T: Muileann Dubh
Z: Piano Box Version by Martin Fleischmann
H: Created 2016-08-06 /  Last Modified 2016-08-09
R: reel
M: 4/4
L: 1/8
K:Bdor
!5!b|!3!fefg a2gf|!2!eA!5!ec eAAa|!3!fefg a2 gf|!1!e!2!cac B2 B>b|
fefg a2gf|eAec eAAa|!3!f!1!e!2!fg !4!abaf|!1!e!2!cac B2B||
!5!b|!3!fBfe fBB!5!a|!3!eAec eAAb|!3!fBfe fBBa|!3!e!2!cac B2 B>b|
fBfe fBBa|eAec eAAa|!2!fefg abaf|!1!e!2!cac B2B||


